public/icons/social-twitter.svg

<svg width="14" height="12" viewBox="0 0 14 12" fill="none" xmlns="http://www.w3.org/2000/svg">
<path d="M13.8574 1.7482C13.3528 1.9722 12.8105 2.12306 12.2414 2.19106C12.8225 1.84306 13.2688 1.29163 13.4785 0.634486C12.9351 0.956772 12.3328 1.19106 11.6916 1.31734C11.1791 0.770486 10.4471 0.428772 9.63792 0.428772C7.82135 0.428772 6.4865 2.12363 6.89678 3.88306C4.55907 3.76592 2.48592 2.64592 1.09792 0.943629C0.360781 2.2082 0.715638 3.86249 1.96821 4.7002C1.50764 4.68534 1.07335 4.55906 0.694495 4.3482C0.663638 5.65163 1.59792 6.87106 2.95107 7.14249C2.55507 7.24992 2.12135 7.27506 1.68021 7.19049C2.03792 8.3082 3.07678 9.12134 4.30878 9.1442C3.12592 10.0716 1.63564 10.4859 0.143066 10.3099C1.38821 11.1082 2.86764 11.5739 4.45621 11.5739C9.68021 11.5739 12.6316 7.16192 12.4534 3.20477C13.0031 2.80763 13.4802 2.3122 13.8574 1.7482Z" fill="white"/>
</svg>

<svg width="14" height="12" fill="none" xmlns="http://www.w3.org/2000/svg"><path d="M13.857 1.748a5.618 5.618 0 0 1-1.616.443A2.818 2.818 0 0 0 13.48.634a5.636 5.636 0 0 1-1.787.683 2.816 2.816 0 0 0-4.795 2.566 7.988 7.988 0 0 1-5.8-2.94A2.817 2.817 0 0 0 1.969 4.7a2.802 2.802 0 0 1-1.274-.352c-.03 1.304.904 2.523 2.257 2.794a2.82 2.82 0 0 1-1.27.048 2.816 2.816 0 0 0 2.628 1.954A5.657 5.657 0 0 1 .143 10.31a7.965 7.965 0 0 0 4.313 1.264c5.224 0 8.176-4.412 7.997-8.37a5.73 5.73 0 0 0 1.404-1.456Z" fill="#fff"/></svg>
